src/assets/icons/Social/Podcast.svg

<?xml version="1.0" encoding="UTF-8"?>
<svg width="24px" height="24px" viewBox="0 0 24 24" version="1.1" xmlns="http://www.w3.org/2000/svg" xmlns:xlink="http://www.w3.org/1999/xlink">
    <!-- Generator: Sketch 61 (89581) - https://sketch.com -->
    <title>🎨 Color</title>
    <desc>Created with Sketch.</desc>
    <defs>
        <path d="M17.3999809,3.19744231e-13 C18.581039,3.19744231e-13 19.5300439,0.0771602976 20.3005977,0.305493737 C21.0233675,0.519615947 21.5494691,0.844185159 21.9903033,1.18353786 C22.7536084,1.77134864 23.2920137,2.60561455 23.5253068,3.19819419 C23.9952311,4.39212819 24,5.74677307 24,6.5999237 L24,17.3998855 C24,18.2529408 23.9951358,19.6075857 23.5252114,20.8016151 C23.2919184,21.3941947 22.7536084,22.228556 21.9902079,22.8162714 C21.5494691,23.1557195 21.0232721,23.4801933 20.3005023,23.6943155 C19.5300439,23.9226489 18.581039,23.9998092 17.3998855,23.9998092 L6.60001908,23.9998092 C5.41896102,23.9998092 4.46995613,23.9226489 3.6994023,23.6943155 C2.97663254,23.4801933 2.45053093,23.1557195 2.0096967,22.8162714 C1.24639156,22.2284606 0.707986266,21.3941947 0.474693203,20.8016151 C0.0409168945,19.6995221 0.00348607133,18.4604921 0.000294206865,17.6053673 L7.531753e-13,6.5999237 C7.531753e-13,5.74677307 0.00476886883,4.39212819 0.474693203,3.19819419 C0.707986266,2.60561455 1.24629618,1.77125326 2.0096967,1.18353786 C2.45043556,0.844089782 2.97663254,0.519615947 3.6994023,0.305493737 C4.38425425,0.10253068 5.21017995,0.0190130679 6.21482583,0.00295931533 L6.60001908,3.19744231e-13 L17.3999809,3.19744231e-13 Z M12.0011445,13.1710434 C11.2543397,13.1710434 10.6217969,13.4146372 10.2616519,13.7946207 C10.0737585,13.9929103 9.97437528,14.1961595 9.9430915,14.4857252 C9.88243149,15.0464488 9.91648121,15.5292491 9.98219622,16.3011382 C10.0447638,17.0366885 10.163604,18.0175494 10.3186876,19.0165321 C10.4290392,19.727475 10.518694,20.1111782 10.600337,20.3859605 C10.7327208,20.8312774 11.2274433,21.2207032 12.0011445,21.2207032 C12.7747504,21.2207032 13.2694729,20.831182 13.4018567,20.3859605 C13.4834997,20.1111782 13.5731544,19.727475 13.6835061,19.0165321 C13.8385897,18.0175494 13.9574299,17.0366885 14.0199975,16.3011382 C14.0857125,15.5291537 14.1197622,15.0463534 14.0591022,14.4857252 C14.0278184,14.1962548 13.9284352,13.9929103 13.7405417,13.7946207 C13.3803968,13.4146372 12.747854,13.1710434 12.0011445,13.1710434 Z M11.9786355,2.65994449 C7.38497488,2.67304635 3.62090672,6.39972658 3.5640618,10.993101 C3.51789915,14.7140586 5.89317734,17.8969924 9.20992561,19.0636485 C9.29042411,19.0919756 9.37216252,19.025116 9.35947733,18.9407071 C9.31598525,18.651809 9.27497298,18.3614803 9.23729891,18.0760158 C9.22394608,17.9751065 9.15966173,17.8881223 9.06647803,17.8473962 C6.44493546,16.7021047 4.61435747,14.0729319 4.64373371,11.0274369 C4.68226617,7.03074331 7.94588924,3.77246137 11.9425828,3.74012844 C16.0284543,3.70712787 19.3629427,7.02130095 19.3629427,11.0996376 C19.3629427,14.1146118 17.5403764,16.711547 14.9392446,17.8476823 C14.8460609,17.8884085 14.7821581,17.9756788 14.7689006,18.0764927 C14.7312266,18.3618618 14.6902143,18.6520951 14.6468176,18.9407071 C14.634037,19.025116 14.7157754,19.0919756 14.7962739,19.0637439 C18.0813569,17.908247 20.4428054,14.774814 20.4428054,11.0997329 C20.4426146,6.43778216 16.6434476,2.64662682 11.9786355,2.65994449 Z M11.7833026,5.45272461 C8.79188656,5.5687035 6.39190564,8.03506708 6.35356393,11.0285814 C6.32838431,12.9973612 7.31515864,14.7415273 8.8254594,15.7733198 C8.90128442,15.8251097 9.00400585,15.7663572 8.99837858,15.6746042 C8.97739556,15.3297196 8.97100528,15.024512 8.98865009,14.7104343 C8.99446811,14.607236 8.9540281,14.5067082 8.87877535,14.4360336 C7.96181726,13.5751574 7.39870923,12.341451 7.43457112,10.9794621 C7.49771094,8.5826286 9.43015197,6.62462644 11.826127,6.53182425 C14.4302156,6.43101036 16.5807846,8.52015642 16.5807846,11.1022128 C16.5807846,12.4153685 16.0244484,13.6009093 15.1352451,14.4358428 C15.0598016,14.5066128 15.0192662,14.6071406 15.0250843,14.7104343 C15.0428244,15.024512 15.0363388,15.3297196 15.0154511,15.6744134 C15.0098239,15.7662618 15.1128314,15.8249189 15.1888472,15.773129 C16.6799771,14.7541171 17.6607427,13.0406626 17.6607427,11.1022128 C17.6607427,7.91050423 15.0021937,5.32797101 11.7833026,5.45272461 Z M12.0029567,8.44709735 C10.9182298,8.44709735 10.0388504,9.32647676 10.0388504,10.411299 C10.0388504,11.4960259 10.9182298,12.3754054 12.0029567,12.3754054 C13.087779,12.3754054 13.9671584,11.4960259 13.9671584,10.411299 C13.9671584,9.32647676 13.087779,8.44709735 12.0029567,8.44709735 Z" id="path-1"></path>
    </defs>
    <g id="💟-Symbols" stroke="none" stroke-width="1" fill="none" fill-rule="evenodd">
        <g id="09-Icons-/-Social-/-Podcast">
            <mask id="mask-2" fill="white">
                <use xlink:href="#path-1"></use>
            </mask>
            <use id="🎨-Color" fill="#000000" xlink:href="#path-1"></use>
        </g>
    </g>
</svg>

<svg width="24" height="24" viewBox="0 0 24 24" xmlns="http://www.w3.org/2000/svg" xmlns:xlink="http://www.w3.org/1999/xlink"><defs><path d="M17.4 0c1.181 0 2.13.077 2.9.305a5.03 5.03 0 011.69.879c.764.587 1.302 1.422 1.535 2.014.47 1.194.475 2.549.475 3.402v10.8c0 .853-.005 2.208-.475 3.402-.233.592-.771 1.427-1.535 2.014-.44.34-.967.664-1.69.878-.77.229-1.719.306-2.9.306H6.6c-1.181 0-2.13-.077-2.9-.306a5.028 5.028 0 01-1.69-.878c-.764-.588-1.302-1.422-1.535-2.014C.04 19.7.003 18.46 0 17.605V6.6c0-.853.005-2.208.475-3.402.233-.592.771-1.427 1.535-2.014.44-.34.967-.664 1.69-.879C4.383.103 5.21.02 6.214.003L6.6 0h10.8zm-5.399 13.171c-.747 0-1.38.244-1.74.624a1.103 1.103 0 00-.318.69c-.06.561-.027 1.044.04 1.816.062.736.18 1.717.336 2.716.11.71.2 1.094.281 1.369.133.445.627.835 1.401.835s1.268-.39 1.4-.835c.082-.275.172-.659.283-1.37.155-.998.273-1.98.336-2.715.066-.772.1-1.255.04-1.815a1.104 1.104 0 00-.32-.691c-.36-.38-.992-.624-1.739-.624zM11.98 2.66c-4.594.013-8.358 3.74-8.415 8.333-.046 3.721 2.33 6.904 5.646 8.07a.113.113 0 00.15-.122c-.044-.29-.085-.58-.123-.865a.29.29 0 00-.17-.229 7.37 7.37 0 01-4.423-6.82c.038-3.996 3.302-7.255 7.299-7.287 4.085-.033 7.42 3.281 7.42 7.36a7.37 7.37 0 01-4.424 6.748.29.29 0 00-.17.228c-.038.286-.079.576-.122.865a.113.113 0 00.15.123c3.284-1.156 5.646-4.29 5.646-7.964 0-4.662-3.8-8.453-8.464-8.44zm-.196 2.793c-2.991.116-5.391 2.582-5.43 5.576a5.651 5.651 0 002.472 4.744.111.111 0 00.173-.098 8.09 8.09 0 01-.01-.965.35.35 0 00-.11-.274 4.562 4.562 0 01-1.443-3.457 4.586 4.586 0 014.391-4.447 4.579 4.579 0 014.755 4.57 4.562 4.562 0 01-1.446 3.334.35.35 0 00-.11.274c.018.315.011.62-.01.964a.111.111 0 00.174.1 5.652 5.652 0 002.472-4.672 5.66 5.66 0 00-5.878-5.65zm.22 2.994a1.964 1.964 0 100 3.928 1.964 1.964 0 000-3.928z" id="a"/></defs><use fill="#000" xlink:href="#a" fill-rule="evenodd"/></svg>
